X: 11743
T: Eleanor Plunkett
R: waltz
M: 3/4
K: Fmajor
FG|"F"A2 A2 GF|"F/A"F2 F2 gf|"Bb"d2 d2 dc|"F"A4 GF|"Gm"D2 G2 GA|"C"G4 fg|
"F"a2 gf dc|"Bb"d4 de|"F"f2 f2 a2|"C"g2 ag fe|"Bb"f2 gf ed|
"F"c2 A3 c|"Bb"d2 f2 F2|"F"A4 GF|"Gm"D2 G2 GA|"C"G4||

